X:92
T:Humming Bird 
R:
C:Bruce Osborne - Dec. 2001
Z:abc by bosborne@kos.net
M:3/4
L:1/8
K:Dmaj
DF|A3 d cB|A2 F2 D2|G3 F GA|B3 d cB|\
AF DB, A,B,|DF BF AF|E3 D CB,|A,4 DF|\
A3 d cB|A2 F2 D2|G3 F GA|B3 d cB|\
AF DB, A,B,|DF BF AF|E3 D FE|D4||\
K:AMajor
CD|E3 C EA|c3 f cf|e3 c AF|E4 cd|\
c2 B3 A|B4 Bc|B2 A3 G|A4 CD|\
E3 C EA|c3 f cf|e3 c AF|E4 cd|\
c2 B3 A|B3 d cB|A3 G cB|A4||
